X:8987
T:La Mio Morena
C:Tradicional
S:Música Tradicional Asturiana, (C) Tello & Tito. Asturies, 2001.
S:http://pagina.de/MusTradAst <telloytito@asturies.org>
A:Asturies
Z:Asturias, canciones
M:3/8
L:1/8
Q:3/8=70
K:G
G
|AFG|A2 d|cBA|G2 G|
AFG|A2 d|cBA|G2 D|
G G/G/G/B/|dBd|dc/B/A/c/|B2 D|
G G/G/G/B/|dBd|d c/B/A/B/|G z G|
AFG|A2 d|cBA|G2 G|
AFG|A2 d|cBA|G z2||


